X:1
T:Title
%%score { ( 1 3 ) | ( 2 4 ) }
L:1/8
M:3/4
K:G
V:1 treble nm="Grand Piano"
V:3 treble 
V:2 treble 
V:4 treble 
V:1
 z2 z2[Q:1/4=100] G>G | G2 D2 B>B | B2 G2 d>d | z2 z2 B2 | [FA]4 [GB]2 | [FA]2 [FA][GB] [Ac]A | %6
 [DGB]2 [DGB]2 [B,DG]>[DGB] | [CEA]2 [B,DG]2 .[A,DF]2 |[M:2/4] [B,DG]4 |] %9
V:2
 z2 z2 [G,B,D]>[G,B,D] | [G,B,D]2 [G,B,]2 [G,DG]>[G,DG] | [G,DG]2 [G,B,D]2 [G,B,D]>[G,B,D] | %3
 [G,B,D]2 [A,F]2 .[G,B,G]2 | [D,D]4 [G,D]2 | [D,D]2 [D,D]2 z[K:treble] F | %6
 G,2[K:bass] G,2 B,,>B,, | C,2 D,2 z C |[M:2/4] G,,4 |] %9
V:3
 x6 | x6 | x6 | d2 c2 z C | x6 | x6 | x6 | x6 |[M:2/4] x4 |] %9
V:4
 x6 | x6 | x6 | x6 | x6 | z2 z2 [D,D]2[K:treble] | x2[K:bass] x4 | z2 z2 D,2 |[M:2/4] x4 |] %9

